svg/m/GH.svg

<svg width="20" height="15" viewBox="0 0 20 15" fill="none" xmlns="http://www.w3.org/2000/svg">
<mask id="mask0" mask-type="alpha" maskUnits="userSpaceOnUse" x="0" y="0" width="20" height="15">
<rect width="20" height="15" fill="white"/>
</mask>
<g mask="url(#mask0)">
<path fill-rule="evenodd" clip-rule="evenodd" d="M0 10H20V15H0V10Z" fill="#5EAA22"/>
<path fill-rule="evenodd" clip-rule="evenodd" d="M0 5H20V10H0V5Z" fill="#FECA00"/>
<path fill-rule="evenodd" clip-rule="evenodd" d="M0 0H20V5H0V0Z" fill="#E11C1B"/>
<path opacity="0.9" fill-rule="evenodd" clip-rule="evenodd" d="M10.0471 9.05654L7.86863 10.5676L8.56474 7.97952L6.96548 6.32624L9.13097 6.23685L10.0471 3.67761L10.9633 6.23685H13.1251L11.5295 7.97952L12.3286 10.4148L10.0471 9.05654Z" fill="#1D1D1D"/>
</g>
</svg>

<svg width="20" height="15" fill="none" xmlns="http://www.w3.org/2000/svg">
  <mask id="a" maskUnits="userSpaceOnUse" x="0" y="0" width="20" height="15">
    <path fill="#fff" d="M0 0h20v15H0z"/>
  </mask>
  <g mask="url(#a)" fill-rule="evenodd" clip-rule="evenodd">
    <path d="M0 10h20v5H0v-5z" fill="#5EAA22"/>
    <path d="M0 5h20v5H0V5z" fill="#FECA00"/>
    <path d="M0 0h20v5H0V0z" fill="#E11C1B"/>
    <path opacity=".9" d="M10.047 9.057l-2.178 1.51.696-2.588-1.6-1.653 2.166-.09.916-2.558.916 2.559h2.162L11.53 7.979l.799 2.436-2.282-1.358z" fill="#1D1D1D"/>
  </g>
</svg>
